chrome/icons/downloads.svg

<svg width="16" height="16" viewBox="0 0 16 16" xmlns="http://www.w3.org/2000/svg" fill="context-fill" fill-opacity="context-fill-opacity">
  <path d="M3.29411 9C3.29411 8.86458 3.34067 8.7474 3.43381 8.64844C3.52695 8.54948 3.63724 8.5 3.76469 8.5C3.89215 8.5 4.00243 8.54948 4.09557 8.64844L7.5294 12.2891V0.5C7.5294 0.364583 7.57597 0.247396 7.66911 0.148438C7.76225 0.0494792 7.87253 0 7.99999 0C8.12744 0 8.23773 0.0494792 8.33087 0.148438C8.42401 0.247396 8.47058 0.364583 8.47058 0.5V12.2891L11.9044 8.64844C11.9975 8.54948 12.1078 8.5 12.2353 8.5C12.3627 8.5 12.473 8.54948 12.5662 8.64844C12.6593 8.7474 12.7059 8.86458 12.7059 9C12.7059 9.13542 12.6593 9.2526 12.5662 9.35156L8.35293 13.8281C8.29901 13.8854 8.24509 13.9297 8.19116 13.9609C8.14214 13.987 8.07842 14 7.99999 14C7.92156 14 7.85538 13.987 7.80146 13.9609C7.75244 13.9297 7.70097 13.8854 7.64705 13.8281L3.43381 9.35156C3.34067 9.2526 3.29411 9.13542 3.29411 9ZM12.7059 15C12.8333 15 12.9436 15.0495 13.0368 15.1484C13.1299 15.2474 13.1765 15.3646 13.1765 15.5C13.1765 15.6354 13.1299 15.7526 13.0368 15.8516C12.9436 15.9505 12.8333 16 12.7059 16H3.29411C3.16665 16 3.05636 15.9505 2.96322 15.8516C2.87009 15.7526 2.82352 15.6354 2.82352 15.5C2.82352 15.3646 2.87009 15.2474 2.96322 15.1484C3.05636 15.0495 3.16665 15 3.29411 15H12.7059Z"/>
</svg>

<svg xmlns="http://www.w3.org/2000/svg" width="16" height="16" fill="context-fill" fill-opacity="context-fill-opacity" viewBox="0 0 16 16"><path d="M3.294 9q0-.203.14-.352a.44.44 0 0 1 .33-.148.44.44 0 0 1 .332.148l3.433 3.641V.5q0-.203.14-.352A.44.44 0 0 1 8 0a.44.44 0 0 1 .33.148q.14.15.14.352v11.79l3.434-3.642a.44.44 0 0 1 .662 0q.14.15.14.352a.5.5 0 0 1-.14.352l-4.213 4.476a.7.7 0 0 1-.162.133A.4.4 0 0 1 8 14a.45.45 0 0 1-.199-.04.8.8 0 0 1-.154-.132L3.434 9.352A.5.5 0 0 1 3.294 9m9.412 6a.44.44 0 0 1 .33.148q.14.15.14.352a.5.5 0 0 1-.14.352.44.44 0 0 1-.33.148H3.294a.44.44 0 0 1-.33-.148.5.5 0 0 1-.14-.352q0-.203.14-.352a.44.44 0 0 1 .33-.148z"/></svg>
